X: 6
T: Downshire
P: Piffero primo b0039
O: Bruce and Emmett
%R: reel
F: http://ancients.sudburymuster.org/mus/ssp/pdf/mountainF.pdf
Z: 2019 John Chambers <jc:trillian.mit.edu>
M: 2/4
L: 1/16
K: D
AG \
| F2DD D2D2 | D2F2 A2d2 | c2AA A2A2 | A2c2 e2g2 \
| fdd2 edcd | B2g2 g2fg | efgf efed | cded cBAG |
| F2DD D2D2 | DFAd DFAd | c2AA A2AA | Aceg Aceg \
| fAdf edcd | B2g2 g2fg | efge d2c2 | (e4 d2) :|
|: A2 \
| f2ff f2f2 | fefg agfg | e2ee e2e2 | edef gfed \
| fgfe dcBA | ^GAB=G A2ec | dece BeAe | ^GeAe Bece |
| dece BeAe | ^GeAe Bece | dFAd fAdf | a2ab agfe \
| dFAd fAdf | a2ab agfe | d2fe dcBA | ^GAdB A=GFE |
| F2DD D2DD | DFAd DFAd | c2AA A2A2 | Aceg Aceg \
| fAdf edcd | B2g2 g2fg | efge d2c2 | (e4 d2) :|

% %sep 1 1 200
% %center - - - - - - - - - -
% Whatever we want at the bottom of each set belongs here.
